X: 34
T:Gan Ainm
M:6/8
L:1/8
S:Doug Patience, Scarriff (fiddle)
R:Jig
H:Very much an East Clare tune. 
Z:Bernie Stocks
K:G
B2E EDE | DED D2A | B2E EDE | B-c2 B2A | B2E EDE | DED D2G | 
EFG ABA |1 G3-G2A :|2 G3-G2D || G2A BGG | dGG BGG | G2A BAG | 
B-c2 B2A | G2A BGG | dGG BGG | d3 ded | c3 B2A :|
<end>
<start>
